src/assets/tokens/REP.svg

<svg height="50" viewBox="0 0 50 50" width="50" xmlns="http://www.w3.org/2000/svg"><path d="m34.125257 25.7105263c-.5526316-1.5789474-1.5-2.9736842-2.7368421-4.0526316l-.4736842-.3947368-.0263158-.0263158c-.1578948-.1315789-.3157895-.2368421-.4736842-.3421053l-.0263158-.0263157c-.1578948-.1052632-.3157895-.2105264-.5-.3157895-.0263158 0-.0263158-.0263158-.0526316-.0263158-.1578947-.1052632-.3421053-.1842105-.5-.2631579-.0263158 0-.0263158-.0263158-.0526316-.0263158-.1578947-.0789474-.3421053-.1578947-.5263158-.2368421-.0263158 0-.0263158-.0263158-.0526316-.0263158-.1578947-.0526316-.3157894-.1315789-.4736842-.1842105-.4210526-.1578948-.868421-.2894737-1.3157894-.3684211-.3421053.6578948-.8157895 1.2368421-1.3421053 1.7368421.8157895.0526316 1.6052632.2631579 2.3157895.5526316.4210526.1842105.8421052.3947369 1.2105263.631579.0263158 0 .0526316.0263158.0526316.0263158.1052631.0526315.1842105.1315789.2894736.2105263.0526316.0263158.0789474.0526315.131579.1052631.0789474.0526316.1842105.131579.2631579.2105263.0526316.0526316.1052631.0789474.1578947.131579.0789474.0789474.1578948.1315789.2368421.2105263l.1578948.1578947.2105263.2105264.1578947.1578947c.0526316.0789474.131579.1578947.1842105.2105263.0526316.0526316.1052632.131579.1578948.1842105l.1578947.2368421c.0526316.0789474.1052632.131579.131579.2105264l.1578947.2368421c.0526316.0789473.0789474.1578947.131579.2105263.0526315.0789473.0789473.1578947.1315789.2368421s.0789474.1578947.1315789.2368421c.0263158.0789474.0789474.1578947.1052632.2368421.0526316.1052632.0789474.2105263.131579.2894737.2105263.5263158.368421 1.0789473.4473684 1.6842105l.2368421.9210526c.1052631.3947369 1.0526316 3.7631579 3.2631579 4.8947369 2.5263158 1.3157895 5.868421 2.9473684 7.1842105 3.5789473l-17.3421053 10.3684211v-7.1052632c0-1.1315789 2.2368421-2.4473684 3.2631579-2.8947368l.0526316-.0263158c.2105263-.1052631.4210526-.2105263.631579-.3421053l.0789473-.0526315c.4473684-.2631579.8684211-.5789474 1.2631579-.9210527.0263158-.0263158.0789474-.0526315.1052632-.1052631.0526316-.0263158.0789473-.0789474.1315789-.1052632.131579-.1052631.2368421-.2368421.3684211-.3421052l.0526316-.0526316c.1315789-.131579.2631579-.2631579.368421-.4210527.0263158-.0526315.0789474-.0789473.1052632-.1315789.1052631-.1052632.1842105-.2368421.2894737-.3684211.0263157-.0263157.0526315-.0789473.0789473-.1052631l.3157895-.4736842c0-.0263158.0263158-.0263158.0263158-.0526316.1315789-.2105263.2631579-.4473684.3947368-.6578947-.5263158-.631579-.9210526-1.3157895-1.2368421-1.9473685-.1315789.3947369-.3157895.7894737-.5 1.131579-.0789473.1578947-.1842105.3157895-.2631579.4736842-.0263158.0263158-.0263158.0526316-.0526316.0526316-.0789473.1315789-.1842105.2631579-.2631578.368421-.0263158.0263158-.0526316.0789474-.0789474.1052632-.0789474.1315789-.1842105.2368421-.2894737.3421053-.0263158.0263157-.0263158.0526315-.0526316.0526315-.6315789.7105263-1.3947368 1.3157895-2.2631579 1.7368421l-.1578947.0789474c-.4473684.1842105-4.3157895 1.9473684-4.3157895 4.6052632v7.1052631l-17.36842104-10.3421052c1.13157895-.6842106 4.39473684-2.631579 7.07894734-3.4736843 1.0526316-.3421052 3.2894737 1.0789474 4.5526316 2.1052632l.0789474.0789474c.1578947.1578947.3421052.3157894.5263158.4473684l.0526315.0526316c.3947369.3157894.8157895.6315789 1.2894737.868421l.3157895.1578948c.0263158 0 .0526316.0263158.0526316.0263158.2894737.1578947.5789474.2894736.8947368.4210526.0526316.0263158.0789474.0263158.131579.0526316.0263158 0 .0526316.0263158.1052631.0263158.4473685.1578947.8947369.2894736 1.3421053.3947368.3421053-.6578947.8421053-1.2368421 1.368421-1.7368421-.7631578-.0526316-1.4736842-.2105263-2.1578947-.4736842-.0263158-.0263158-.0789474-.0263158-.1052631-.0526316-.0789474-.0263158-.1578948-.0526316-.2368422-.1052632-.0263157-.0263157-.0789473-.0263157-.1052631-.0526315-.0789474-.0263158-.1578947-.0789474-.2105263-.1052632-.5263158-.2631579-1-.5526316-1.4473684-.9210526l-.6842106-.631579c-.0263158-.0263158-.868421-.7894737-2.0526316-1.4736842-1.7105263-.9736842-3.1578947-1.2894737-4.2631578-.9473684-2.2894737.7368421-4.89473689 2.1315789-6.47368426 3.0526316l17.34210526-31.15789476v13.65789476c0 .4736842-.7105263 1.7368421-3.1052632 2.8157894l-.1578947.0789474c-.2368421.1052632-.4473684.2368421-.6842105.3684211l-.0526316.0263158c-.4473684.2631579-.868421.5789473-1.2894737.9210526-.2631579.2105263-.5.4473684-.7105263.6842105l-.0263158.0263158c-.2368421.2368421-.4473684.4736842-.6315789.7368421l-.0263158.0263158c-.1052632.1315789-.1842105.2631579-.2894737.3947368 0 .0263158-.0263158.0263158-.0263158.0526316-.0789474.131579-.1578947.2368421-.2368421.3684211 0 .0263158-.0263158.0263158-.0263158.0526316l-.2368421.3947368c-.0263158.0263158-.0263158.0526316-.0526316.1052632-.0789473.1315789-.1315789.2631578-.1842105.368421 0 .0263158-.0263158.0526316-.0263158.0526316-.0526316.1315789-.1052631.2368421-.1578947.368421-.0263158.0526316-.0263158.0789474-.0526316.131579l-.1578947.3947368c-.0263158.0526316-.0263158.0789474-.0526316.131579-.0263158.1052631-.0526316.1842105-.1052632.2894737-.0263158.0526315-.0263158.1052631-.0526316.1578947-.0263157.1315789-.0789473.2631579-.1052631.368421-.0263158.0526316-.0263158.131579-.0526316.1842106-.0263158.0789473-.0263158.1842105-.0526316.2631579-.0263158.0789473-.0263158.1578947-.0526316.2368421-.0263157.1052631-.0263157.2105263-.0526315.3157894 0 .0789474-.0263158.131579-.0263158.2105264 0 .1052631-.0263158.1842105-.0263158.2894736 0 .1052632 0 .1842106-.0263158.2894737v.3947369c0 .4736842.0263158.9736842.1052632 1.4210526.6842105.1578947 1.3947368.4473684 2.1578947.8157895-.2105263-.6842105-.3157895-1.3947369-.3421053-2.131579v-.1315789c0-.1842105 0-.3421053.0263158-.5263158v-.131579c0-.1578947.0263158-.2894736.0526316-.4473684v-.0526316c.0263158-.1578947.0526316-.3157894.0789474-.5 0-.0526315.0263158-.0789473.0263158-.1315789.0263157-.1315789.0789473-.2631579.1052631-.3947368 0-.0263158.0263158-.0526316.0263158-.0789474l.1578947-.4736842c.0263158-.0263158.0263158-.0789474.0526316-.1052632.0526316-.1315789.1052632-.2631579.1578948-.368421.0263157-.0263158.0263157-.0526316.0526315-.1052632.0789474-.1578947.131579-.2894737.2368421-.4210526.0263158-.0263158.0263158-.0526316.0526316-.0789474.0789474-.1315789.131579-.2368421.2105263-.368421.0263158-.0263158.0263158-.0526316.0526316-.0789474.0789474-.131579.1842105-.2631579.2894737-.3947369 0 0 0-.0263157.0263158-.0263157.1052631-.131579.1842105-.2368421.2894737-.3684211.0263158-.0263158.0263158-.0526316.0526316-.0789474.4736842-.5263158 1-.9736842 1.6052631-1.368421l.8157895-.3947369c.4473684-.1842105 4.2894737-2 4.2894737-4.6578947v-13.57894736l17.5 31.42105266c-1.5526316-.7631579-4.3157895-2.131579-6.4473685-3.2368421-1.2368421-.631579-2.0526315-2.8684211-2.2894736-3.6842106l-.2368421-.9473684c0-.5-.131579-1-.2894737-1.5zm11.8421052 9.8947369-19.2894736-34.6052632c-.3421053-.63157895-.9736843-1-1.6842106-1s-1.3421052.36842105-1.6842105 1l-19.28947368 34.6052632c-.5.8947368-.21052632 2.0526315.68421052 2.5789473l19.31578946 11.5526316c.3157895.1842105.6578948.2631579 1 .2631579.3421053 0 .6842105-.0789474 1-.2631579l19.2894737-11.5263158c.8684211-.5526316 1.1842105-1.7105263.6578947-2.6052631z" fill="#5f2652" fill-rule="evenodd"/></svg>

<?xml version="1.0" encoding="UTF-8"?>
<svg width="50px" height="50px" viewBox="0 0 50 50" version="1.1" xmlns="http://www.w3.org/2000/svg" xmlns:xlink="http://www.w3.org/1999/xlink">
    <!-- Generator: Sketch 46 (44423) - http://www.bohemiancoding.com/sketch -->
    <title>REP</title>
    <desc>Created with Sketch.</desc>
    <defs></defs>
    <g id="Welcome" stroke="none" stroke-width="1" fill="none" fill-rule="evenodd">
        <g id="REP" fill="#5F2652">
            <path d="M34.125257,25.7105263 C33.5726254,24.1315789 32.625257,22.7368421 31.3884149,21.6578947 L30.9147307,21.2631579 L30.8884149,21.2368421 C30.7305201,21.1052632 30.5726254,21 30.4147307,20.8947368 L30.3884149,20.8684211 C30.2305201,20.7631579 30.0726254,20.6578947 29.8884149,20.5526316 C29.8620991,20.5526316 29.8620991,20.5263158 29.8357833,20.5263158 C29.6778886,20.4210526 29.493678,20.3421053 29.3357833,20.2631579 C29.3094675,20.2631579 29.3094675,20.2368421 29.2831517,20.2368421 C29.125257,20.1578947 28.9410464,20.0789474 28.7568359,20 C28.7305201,20 28.7305201,19.9736842 28.7042043,19.9736842 C28.5463096,19.9210526 28.3884149,19.8421053 28.2305201,19.7894737 C27.8094675,19.6315789 27.3620991,19.5 26.9147307,19.4210526 C26.5726254,20.0789474 26.0989412,20.6578947 25.5726254,21.1578947 C26.3884149,21.2105263 27.1778886,21.4210526 27.8884149,21.7105263 C28.3094675,21.8947368 28.7305201,22.1052632 29.0989412,22.3421053 C29.125257,22.3421053 29.1515728,22.3684211 29.1515728,22.3684211 C29.2568359,22.4210526 29.3357833,22.5 29.4410464,22.5789474 C29.493678,22.6052632 29.5199938,22.6315789 29.5726254,22.6842105 C29.6515728,22.7368421 29.7568359,22.8157895 29.8357833,22.8947368 C29.8884149,22.9473684 29.9410464,22.9736842 29.993678,23.0263158 C30.0726254,23.1052632 30.1515728,23.1578947 30.2305201,23.2368421 L30.3884149,23.3947368 L30.5989412,23.6052632 L30.7568359,23.7631579 C30.8094675,23.8421053 30.8884149,23.9210526 30.9410464,23.9736842 C30.993678,24.0263158 31.0463096,24.1052632 31.0989412,24.1578947 L31.2568359,24.3947368 C31.3094675,24.4736842 31.3620991,24.5263158 31.3884149,24.6052632 L31.5463096,24.8421053 C31.5989412,24.9210526 31.625257,25 31.6778886,25.0526316 C31.7305201,25.1315789 31.7568359,25.2105263 31.8094675,25.2894737 C31.8620991,25.3684211 31.8884149,25.4473684 31.9410464,25.5263158 C31.9673622,25.6052632 32.0199938,25.6842105 32.0463096,25.7631579 C32.0989412,25.8684211 32.125257,25.9736842 32.1778886,26.0526316 C32.3884149,26.5789474 32.5463096,27.1315789 32.625257,27.7368421 L32.8620991,28.6578947 C32.9673622,29.0526316 33.9147307,32.4210526 36.125257,33.5526316 C38.6515728,34.8684211 41.993678,36.5 43.3094675,37.1315789 L25.9673622,47.5 L25.9673622,40.3947368 C25.9673622,39.2631579 28.2042043,37.9473684 29.2305201,37.5 L29.2831517,37.4736842 C29.493678,37.3684211 29.7042043,37.2631579 29.9147307,37.1315789 L29.993678,37.0789474 C30.4410464,36.8157895 30.8620991,36.5 31.2568359,36.1578947 C31.2831517,36.1315789 31.3357833,36.1052632 31.3620991,36.0526316 C31.4147307,36.0263158 31.4410464,35.9736842 31.493678,35.9473684 C31.625257,35.8421053 31.7305201,35.7105263 31.8620991,35.6052632 L31.9147307,35.5526316 C32.0463096,35.4210526 32.1778886,35.2894737 32.2831517,35.1315789 C32.3094675,35.0789474 32.3620991,35.0526316 32.3884149,35 C32.493678,34.8947368 32.5726254,34.7631579 32.6778886,34.6315789 C32.7042043,34.6052632 32.7305201,34.5526316 32.7568359,34.5263158 L33.0726254,34.0526316 C33.0726254,34.0263158 33.0989412,34.0263158 33.0989412,34 C33.2305201,33.7894737 33.3620991,33.5526316 33.493678,33.3421053 C32.9673622,32.7105263 32.5726254,32.0263158 32.2568359,31.3947368 C32.125257,31.7894737 31.9410464,32.1842105 31.7568359,32.5263158 C31.6778886,32.6842105 31.5726254,32.8421053 31.493678,33 C31.4673622,33.0263158 31.4673622,33.0526316 31.4410464,33.0526316 C31.3620991,33.1842105 31.2568359,33.3157895 31.1778886,33.4210526 C31.1515728,33.4473684 31.125257,33.5 31.0989412,33.5263158 C31.0199938,33.6578947 30.9147307,33.7631579 30.8094675,33.8684211 C30.7831517,33.8947368 30.7831517,33.9210526 30.7568359,33.9210526 C30.125257,34.6315789 29.3620991,35.2368421 28.493678,35.6578947 L28.3357833,35.7368421 C27.8884149,35.9210526 24.0199938,37.6842105 24.0199938,40.3421053 L24.0199938,47.4473684 L6.65157276,37.1052632 C7.78315171,36.4210526 11.0463096,34.4736842 13.7305201,33.6315789 C14.7831517,33.2894737 17.0199938,34.7105263 18.2831517,35.7368421 L18.3620991,35.8157895 C18.5199938,35.9736842 18.7042043,36.1315789 18.8884149,36.2631579 L18.9410464,36.3157895 C19.3357833,36.6315789 19.7568359,36.9473684 20.2305201,37.1842105 L20.5463096,37.3421053 C20.5726254,37.3421053 20.5989412,37.3684211 20.5989412,37.3684211 C20.8884149,37.5263158 21.1778886,37.6578947 21.493678,37.7894737 C21.5463096,37.8157895 21.5726254,37.8157895 21.625257,37.8421053 C21.6515728,37.8421053 21.6778886,37.8684211 21.7305201,37.8684211 C22.1778886,38.0263158 22.625257,38.1578947 23.0726254,38.2631579 C23.4147307,37.6052632 23.9147307,37.0263158 24.4410464,36.5263158 C23.6778886,36.4736842 22.9673622,36.3157895 22.2831517,36.0526316 C22.2568359,36.0263158 22.2042043,36.0263158 22.1778886,36 C22.0989412,35.9736842 22.0199938,35.9473684 21.9410464,35.8947368 C21.9147307,35.8684211 21.8620991,35.8684211 21.8357833,35.8421053 C21.7568359,35.8157895 21.6778886,35.7631579 21.625257,35.7368421 C21.0989412,35.4736842 20.625257,35.1842105 20.1778886,34.8157895 L19.493678,34.1842105 C19.4673622,34.1578947 18.625257,33.3947368 17.4410464,32.7105263 C15.7305201,31.7368421 14.2831517,31.4210526 13.1778886,31.7631579 C10.8884149,32.5 8.28315171,33.8947368 6.70420434,34.8157895 L24.0463096,3.65789474 L24.0463096,17.3157895 C24.0463096,17.7894737 23.3357833,19.0526316 20.9410464,20.1315789 L20.7831517,20.2105263 C20.5463096,20.3157895 20.3357833,20.4473684 20.0989412,20.5789474 L20.0463096,20.6052632 C19.5989412,20.8684211 19.1778886,21.1842105 18.7568359,21.5263158 C18.493678,21.7368421 18.2568359,21.9736842 18.0463096,22.2105263 L18.0199938,22.2368421 C17.7831517,22.4736842 17.5726254,22.7105263 17.3884149,22.9736842 L17.3620991,23 C17.2568359,23.1315789 17.1778886,23.2631579 17.0726254,23.3947368 C17.0726254,23.4210526 17.0463096,23.4210526 17.0463096,23.4473684 C16.9673622,23.5789474 16.8884149,23.6842105 16.8094675,23.8157895 C16.8094675,23.8421053 16.7831517,23.8421053 16.7831517,23.8684211 L16.5463096,24.2631579 C16.5199938,24.2894737 16.5199938,24.3157895 16.493678,24.3684211 C16.4147307,24.5 16.3620991,24.6315789 16.3094675,24.7368421 C16.3094675,24.7631579 16.2831517,24.7894737 16.2831517,24.7894737 C16.2305201,24.9210526 16.1778886,25.0263158 16.125257,25.1578947 C16.0989412,25.2105263 16.0989412,25.2368421 16.0726254,25.2894737 L15.9147307,25.6842105 C15.8884149,25.7368421 15.8884149,25.7631579 15.8620991,25.8157895 C15.8357833,25.9210526 15.8094675,26 15.7568359,26.1052632 C15.7305201,26.1578947 15.7305201,26.2105263 15.7042043,26.2631579 C15.6778886,26.3947368 15.625257,26.5263158 15.5989412,26.6315789 C15.5726254,26.6842105 15.5726254,26.7631579 15.5463096,26.8157895 C15.5199938,26.8947368 15.5199938,27 15.493678,27.0789474 C15.4673622,27.1578947 15.4673622,27.2368421 15.4410464,27.3157895 C15.4147307,27.4210526 15.4147307,27.5263158 15.3884149,27.6315789 C15.3884149,27.7105263 15.3620991,27.7631579 15.3620991,27.8421053 C15.3620991,27.9473684 15.3357833,28.0263158 15.3357833,28.1315789 C15.3357833,28.2368421 15.3357833,28.3157895 15.3094675,28.4210526 L15.3094675,28.8157895 C15.3094675,29.2894737 15.3357833,29.7894737 15.4147307,30.2368421 C16.0989412,30.3947368 16.8094675,30.6842105 17.5726254,31.0526316 C17.3620991,30.3684211 17.2568359,29.6578947 17.2305201,28.9210526 L17.2305201,28.7894737 C17.2305201,28.6052632 17.2305201,28.4473684 17.2568359,28.2631579 L17.2568359,28.1315789 C17.2568359,27.9736842 17.2831517,27.8421053 17.3094675,27.6842105 L17.3094675,27.6315789 C17.3357833,27.4736842 17.3620991,27.3157895 17.3884149,27.1315789 C17.3884149,27.0789474 17.4147307,27.0526316 17.4147307,27 C17.4410464,26.8684211 17.493678,26.7368421 17.5199938,26.6052632 C17.5199938,26.5789474 17.5463096,26.5526316 17.5463096,26.5263158 L17.7042043,26.0526316 C17.7305201,26.0263158 17.7305201,25.9736842 17.7568359,25.9473684 C17.8094675,25.8157895 17.8620991,25.6842105 17.9147307,25.5789474 C17.9410464,25.5526316 17.9410464,25.5263158 17.9673622,25.4736842 C18.0463096,25.3157895 18.0989412,25.1842105 18.2042043,25.0526316 C18.2305201,25.0263158 18.2305201,25 18.2568359,24.9736842 C18.3357833,24.8421053 18.3884149,24.7368421 18.4673622,24.6052632 C18.493678,24.5789474 18.493678,24.5526316 18.5199938,24.5263158 C18.5989412,24.3947368 18.7042043,24.2631579 18.8094675,24.1315789 C18.8094675,24.1315789 18.8094675,24.1052632 18.8357833,24.1052632 C18.9410464,23.9736842 19.0199938,23.8684211 19.125257,23.7368421 C19.1515728,23.7105263 19.1515728,23.6842105 19.1778886,23.6578947 C19.6515728,23.1315789 20.1778886,22.6842105 20.7831517,22.2894737 L21.5989412,21.8947368 C22.0463096,21.7105263 25.8884149,19.8947368 25.8884149,17.2368421 L25.8884149,3.65789474 L43.3884149,35.0789474 C41.8357833,34.3157895 39.0726254,32.9473684 36.9410464,31.8421053 C35.7042043,31.2105263 34.8884149,28.9736842 34.6515728,28.1578947 L34.4147307,27.2105263 C34.4147307,26.7105263 34.2831517,26.2105263 34.125257,25.7105263 L34.125257,25.7105263 Z M45.9673622,35.6052632 L26.6778886,1 C26.3357833,0.368421053 25.7042043,0 24.993678,0 C24.2831517,0 23.6515728,0.368421053 23.3094675,1 L4.01999382,35.6052632 C3.51999382,36.5 3.8094675,37.6578947 4.70420434,38.1842105 L24.0199938,49.7368421 C24.3357833,49.9210526 24.6778886,50 25.0199938,50 C25.3620991,50 25.7042043,49.9210526 26.0199938,49.7368421 L45.3094675,38.2105263 C46.1778886,37.6578947 46.493678,36.5 45.9673622,35.6052632 Z" id="Shape"></path>
        </g>
    </g>
</svg>
